X:103
T:Leave Her, Johnny (Halyards)
M:C|
L:1/4
Q:1/4=120
K:D
A/G/|\
FD EC | DE D2 | CD  F>F | G A2 A/B/|
cA GE | FD CA | D>E FG  | E D2    ||
